X: 381
%
U:~=!turn!
U:t=!tenuto!
U:m=!diminuendo(!
U:p=!diminuendo)!
T: The Miller o' Hirn
C:James Scott Skinner
O:Scotland
B:Keith Norman MacDonald : "The Skye collection of the best reels & strathspeys extant" : 1887
Z:Ralph Palmer
R:Strathspey
M:C
L:1/8
K:D
!p!L(tD>.E) (F<B) A<F (D2 | B,)>E G/F/E/D/ C<A, ~A,>C | (tD>.E) (F<B) A<F D2 | B,>D (C<A) F<D tD2 :|
!ff!(tA>.G) (F<d) B<G-~G2 | L(tB>.A) (^G<e) c<AA>B | (tA>.G) (F<d) B>A (G<B) | (tc>.B) A<a f<d~d>B |
(tA>.G) (F<d) B<G-~G2 | (tB>A) (^G<e) c<AA>c | (3LdAB (3Lcde (3Lfde (3Lfga | m(3bag (3fed (3cBA (3GFp"D.C."E || xx "last" H[F4A4d4] |]


